!!!COM: Corelli, Arcangelo
!!!OTL: 
!!!ONM: Opus 5, No. 10
!!!OMV: 3
!!!CDT: 1653/2/17/-1713/1/8/
!!!OCY: Italia
**kern	**kern	**kern
*clefC	*clefG	*clefG
*k[b-]	*k[b-]	*k[b-]
*F:	*F:	*F:
*M3/4	*M3/4	*M3/4
=1	=1	=1
4r	2.r	4ff
4f	.	8aa
.	.	8gg
4F	.	4aa
=2	=2	=2
4r	2.r	4e
4e	.	4gg
4E	.	4c
=3	=3	=3
4r	2.r	4d
4d	.	8ff
.	.	8ee
4D	.	4ff
=4	=4	=4
4r	2.r	4c
4c	.	4ee
4C	.	4A
=5	=5	=5
4r	2.r	4B-
4B-	.	8dd
.	.	8cc
4BB-	.	4dd
=6	=6	=6
4r	2.r	4A
4A	.	4cc
4AA	.	4ff
=7	=7	=7
4BB-	2.r	8b-
.	.	8a
2C	.	4.g
.	.	8f
=8	=8	=8
2.FF	2.c	2.f 2.a
=9	=9	=9
4r	2.r	4ff
4f	.	4aa
4F	.	4f
=10	=10	=10
4r	2.r	4c
4c	.	8ee
.	.	8ff
4C	.	4gg
=11	=11	=11
4r	2.r	4d
4d	.	4a
4D	.	4dd
=12	=12	=12
4r	2.r	4A
4A	.	8cc#
.	.	8dd
4AA	.	4ee
=13	=13	=13
4r	2.r	4c#
4c#	.	4ee
4C#	.	4gg
=14	=14	=14
4r	2.r	4d
4d	.	8ff
.	.	8gg
4D	.	4aa
=15	=15	=15
4r	2.r	4G
4A	.	4A
4AA	.	4cc#
=16	=16	=16
4r	2.r	4d
4D	.	8dd
.	.	8ee
4DD	.	4ff
=17	=17	=17
4r	2.r	4B
4B	.	4gg
4BB	.	4dd
=18	=18	=18
4r	2.r	4c
4c	.	8cc
.	.	8dd
4C	.	4ee-
=19	=19	=19
4r	2.r	4A
4A	.	4ff
4AA	.	4cc
=20	=20	=20
4r	2.r	4B-
4B-	.	8b-
.	.	8cc
4BB-	.	4dd
=21	=21	=21
4r	2.r	4e
4E	.	4g
4EE	.	4cc
=22	=22	=22
4r	2.r	4f
4A	.	8ff
.	.	8gg
4F	.	4aa
=23	=23	=23
4BB-	4r	8b-
.	.	8aa
2C	2cc	4.gg
.	.	8ff
=24	=24	=24
2.FF	2.f	2.ff 2.a
==	==	==
*-	*-	*-
!!!RWG: This file only contains pitch and duration data.
!!!RWG: Transposing instruments are not transposed.
!!!RWG: Durations of rests and tied notes may be interpreted.
!!!RWG: Key is interpreted using the Humdrum key tool.
!!!SCA: 
!!!YOR: 
!!!AGN: violin
!!!AFT: stage1
!!!ENC: F. Bennion
!!!END: 1997/04/15
!!!AST: baroque
!!!YEC: Copyright 1994, Center for Computer Assisted Research in the Humanities
!!!YEM: Rights to all derivative electronic formats reserved.
!!!YEM: Refer to licensing agreement for further details.
!!!YEN: United States of America
!!!EED: W.B. Hewlett
!!!KEY: 2681910162
!!!EMD: Converted from MuseData to Humdrum Aug 9, 1999, by Bret Aarden using muse2kern.
!!!VTS: 3540290376
